icons-dark/mimetypes/64/image-x-psd.svg

<?xml version="1.0" encoding="UTF-8" standalone="no"?>
<svg width="64" version="1.1" xmlns="http://www.w3.org/2000/svg" viewBox="0 0 64 64" height="64" xmlns:xlink="http://www.w3.org/1999/xlink" xmlns:inkscape="http://www.inkscape.org/namespaces/inkscape">
 <defs id="defs4">
  <linearGradient inkscape:collect="always" id="linearGradient4351">
   <stop style="stop-color:#97aad8" id="stop4353"/>
   <stop offset="1" style="stop-color:#c1cae7" id="stop4355"/>
  </linearGradient>
  <linearGradient inkscape:collect="always" xlink:href="#linearGradient4300-2" id="linearGradient4306" y1="61" y2="3" x2="0" gradientUnits="userSpaceOnUse"/>
  <linearGradient inkscape:collect="always" xlink:href="#linearGradient4410" id="linearGradient4427" y1="31" x1="54" y2="17" x2="40" gradientUnits="userSpaceOnUse" gradientTransform="matrix(1 0 0 -1 -14 78)"/>
  <linearGradient inkscape:collect="always" id="linearGradient4410">
   <stop style="stop-color:#383e51" id="stop4412"/>
   <stop offset="1" style="stop-color:#655c6f;stop-opacity:0" id="stop4414"/>
  </linearGradient>
  <linearGradient inkscape:collect="always" xlink:href="#linearGradient4351" id="linearGradient4357" y1="61" y2="47" x2="0" gradientUnits="userSpaceOnUse"/>
  <linearGradient id="linearGradient4300-2">
   <stop style="stop-color:#3a539b" id="stop4302-4"/>
   <stop offset="1" style="stop-color:#3f5aa9" id="stop4304-1"/>
  </linearGradient>
 </defs>
 <metadata id="metadata84"/>
 <path style="fill:url(#linearGradient4306)" id="rect3500" d="M 10 3 L 10 61 L 40 61 L 54 47 L 54 17 L 54 3 L 40 3 L 10 3 z "/>
 <rect width="30" x="10" y="60" height="1" style="fill:#2e3132;fill-opacity:0.294118" id="rect4169"/>
 <rect width="44" x="10" y="3" height="1" style="fill:#ffffff;fill-opacity:0.409836" id="rect4236"/>
 <path inkscape:connector-curvature="0" style="fill:url(#linearGradient4357);fill-rule:evenodd" id="path4314" d="M 54,47 40,61 40,47 Z"/>
 <path inkscape:connector-curvature="0" style="fill:url(#linearGradient4427);opacity:0.2;fill-rule:evenodd" id="path4320" d="M 26,61 40,47 40,61 Z"/>
 <path style="fill:#c1cae7" id="rect4165" d="M 27 21 C 23.676 21 21 23.676 21 27 C 21 28.09611 21.295434 29.119488 21.804688 30.001953 L 21.800781 30 L 21.882812 30.130859 C 21.940348 30.22498 21.996104 30.319579 22.058594 30.410156 L 30 43 L 30 33 L 37 33 C 40.324 33 43 30.324 43 27 C 43 23.676 40.324 21 37 21 L 27 21 z M 37 23 A 4 4 0 0 1 41 27 A 4 4 0 0 1 37 31 A 4 4 0 0 1 33 27 A 4 4 0 0 1 37 23 z "/>
</svg>

<svg width="64" xmlns="http://www.w3.org/2000/svg" viewBox="0 0 64 64" height="64">
 <defs>
  <linearGradient id="a" y1="57" y2="7" x2="0" gradientUnits="userSpaceOnUse">
   <stop stop-color="#3a539b"/>
   <stop offset="1" stop-color="#3f5aa9"/>
  </linearGradient>
 </defs>
 <g color-rendering="auto" color-interpolation-filters="linearRGB" shape-rendering="auto" image-rendering="auto" text-rendering="auto" color-interpolation="sRGB" color="#000000">
  <path fill="url(#a)" d="m4 57v-50h56v50z"/>
  <rect opacity=".25" x="4" y="56" width="56" height="1"/>
  <rect opacity=".5" x="4" y="7" width="56" fill="#ffffff" height="1"/>
  <path opacity=".75" fill="#c1cae7" stroke-width="2" d="m8 11v42h48v-42h-1zm1 1h46v40h-46z"/>
 </g>
 <path fill="#c1cae7" d="m27 21c-3.324 0-6 2.676-6 6 0 1.096.295 2.119.805 3l-.004-.002.082.131c.058.094.113.189.176.279l7.942 12.59v-10h7c3.324 0 6-2.676 6-6 0-3.324-2.676-6-6-6zm10 2a4 4 0 0 1 4 4 4 4 0 0 1 -4 4 4 4 0 0 1 -4 -4 4 4 0 0 1 4 -4"/>
</svg>
